icons/1_Primary/VFUN.svg

<svg width="1024" height="1024" viewBox="0 0 1024 1024" fill="none" xmlns="http://www.w3.org/2000/svg">
<g clip-path="url(#clip0_2_3840)">
<path d="M512 1024C794.77 1024 1024 794.77 1024 512C1024 229.23 794.77 0 512 0C229.23 0 0 229.23 0 512C0 794.77 229.23 1024 512 1024Z" fill="#FF837D"/>
<path d="M304.541 416.61C313.111 413.01 324.311 414.37 330.541 421.73C335.201 427.73 335.171 436.13 332.541 443C316.991 489.49 301.161 535.89 285.541 582.36C282.861 590.2 278.811 598.18 271.751 602.92C263.751 607.41 253.681 607.8 245.091 604.83C235.951 601.47 229.601 593.08 226.711 584.02C211.061 537.14 195.211 490.32 179.551 443.45C177.011 436.62 176.641 428.31 181.181 422.23C186.981 414.47 198.331 413.04 206.951 416.4C214.191 419.51 218.191 426.98 220.611 434.08C232.611 470.45 244.031 506.99 255.961 543.36C267.051 507.78 278.771 472.36 290.091 436.88C292.681 429 296.481 420.25 304.541 416.61ZM360.461 444.76C360.401 491.52 360.401 538.29 360.461 585.07C360.461 590.17 361.731 595.42 365.011 599.42C372.401 608.62 387.011 610.32 396.611 603.56C402.841 599.7 406.131 592.27 406.001 585.08C406.047 565.807 406.047 546.54 406.001 527.28C426.381 527.04 446.761 527.34 467.131 527.13C470.986 527.076 474.731 525.839 477.861 523.587C480.99 521.336 483.353 518.178 484.631 514.54C486.631 507.84 485.631 499.91 480.751 494.65C476.891 489.99 470.671 487.84 464.751 488.12C445.221 488.21 425.681 487.95 406.141 488.25C405.871 476.93 406.071 465.59 406.041 454.25C424.791 453.58 443.571 454.14 462.331 453.96C468.851 453.78 476.071 454.96 481.821 451.12C490.271 446.12 493.131 434.41 488.821 425.75C487.305 422.521 484.901 419.79 481.891 417.876C478.881 415.962 475.388 414.944 471.821 414.94C445.451 414.84 419.101 414.94 392.741 414.94C385.131 414.94 377.151 416.17 370.831 420.68C363.491 426.23 360.431 435.81 360.461 444.76ZM511.541 436.5C511.541 468.97 511.431 501.5 511.541 533.95C511.931 554.78 518.131 576.88 533.961 591.32C547.761 604.78 567.751 609.68 586.561 609.56C605.671 609.65 625.781 604.21 639.661 590.45C654.601 575.77 660.661 554.31 660.941 533.84C661.121 502.57 660.941 471.29 661.031 440.03C661.031 435.11 660.791 429.91 658.121 425.61C652.561 416 639.831 412 629.601 416C625.464 417.553 621.9 420.333 619.389 423.969C616.878 427.605 615.538 431.921 615.551 436.34C615.451 468.83 615.551 501.34 615.551 533.8C615.401 542.43 614.551 551.52 609.941 559.02C599.871 573.02 576.801 573.71 564.941 561.73C557.461 553.11 557.251 540.91 557.161 530.1V437.41C557.381 429.94 553.781 422.27 547.291 418.34C544.581 416.589 541.549 415.395 538.373 414.829C535.196 414.262 531.939 414.334 528.791 415.04C523.886 416.087 519.491 418.793 516.349 422.702C513.207 426.611 511.509 431.485 511.541 436.5ZM802.461 435C802.241 467.63 802.611 500.28 802.281 532.91C786.961 500.78 771.111 468.91 755.471 436.91C751.231 428.38 744.991 419.86 735.471 416.91C725.521 413.76 713.471 413.91 704.931 420.51C697.471 426.51 695.071 436.73 695.141 445.94C695.081 492.26 695.081 538.593 695.141 584.94C695.141 590.71 696.811 596.81 701.141 600.81C710.061 609.27 725.841 608.67 734.071 599.52C737.681 595.64 738.961 590.19 739.071 585.03C739.221 552.59 738.861 520.14 739.251 487.71L786.251 584.11C790.751 593.03 797.121 602.48 807.401 605.11C816.251 607.11 826.311 607.19 834.321 602.37C842.911 596.97 846.381 586.29 846.271 576.58C846.304 529.82 846.304 483.063 846.271 436.31C846.511 430.18 844.271 423.77 839.461 419.76C835.519 416.64 830.701 414.831 825.68 414.585C820.66 414.339 815.688 415.67 811.461 418.39C805.721 421.77 802.421 428.45 802.461 435Z" fill="white"/>
</g>
<defs>
<clipPath id="clip0_2_3840">
<rect width="1024" height="1024" fill="white"/>
</clipPath>
</defs>
</svg>

<svg xmlns="http://www.w3.org/2000/svg" viewBox="0 0 1024 1024">
   <circle cx="512" cy="512" r="512" style="fill:#ee316b"/>
   <path d="M304.54 416.61c8.57-3.6 19.77-2.24 26 5.12 4.66 6 4.63 14.4 2 21.27-15.55 46.49-31.38 92.89-47 139.36-2.68 7.84-6.73 15.82-13.79 20.56-8 4.49-18.07 4.88-26.66 1.91-9.14-3.36-15.49-11.75-18.38-20.81-15.65-46.88-31.5-93.7-47.16-140.57-2.54-6.83-2.91-15.14 1.63-21.22 5.8-7.76 17.15-9.19 25.77-5.83 7.24 3.11 11.24 10.58 13.66 17.68 12 36.37 23.42 72.91 35.35 109.28 11.09-35.58 22.81-71 34.13-106.48 2.59-7.88 6.39-16.63 14.45-20.27Zm55.92 28.15q-.09 70.14 0 140.31c0 5.1 1.27 10.35 4.55 14.35 7.39 9.2 22 10.9 31.6 4.14 6.23-3.86 9.52-11.29 9.39-18.48q.07-28.91 0-57.8c20.38-.24 40.76.06 61.13-.15a18.83 18.83 0 0 0 17.5-12.59c2-6.7 1-14.63-3.88-19.89-3.86-4.66-10.08-6.81-16-6.53-19.53.09-39.07-.17-58.61.13-.27-11.32-.07-22.66-.1-34 18.75-.67 37.53-.11 56.29-.29 6.52-.18 13.74 1 19.49-2.84 8.45-5 11.31-16.71 7-25.37a18.8 18.8 0 0 0-17-10.81c-26.37-.1-52.72 0-79.08 0-7.61 0-15.59 1.23-21.91 5.74-7.34 5.55-10.4 15.13-10.37 24.08Zm151.08-8.26c0 32.47-.11 65 0 97.45.39 20.83 6.59 42.93 22.42 57.37 13.8 13.46 33.79 18.36 52.6 18.24 19.11.09 39.22-5.35 53.1-19.11 14.94-14.68 21-36.14 21.28-56.61.18-31.27 0-62.55.09-93.81 0-4.92-.24-10.12-2.91-14.42C652.56 416 639.83 412 629.6 416a21.66 21.66 0 0 0-14.05 20.34c-.1 32.49 0 65 0 97.46-.15 8.63-1 17.72-5.61 25.22-10.07 14-33.14 14.69-45 2.71-7.48-8.62-7.69-20.82-7.78-31.63v-92.69c.22-7.47-3.38-15.14-9.87-19.07a24.29 24.29 0 0 0-18.5-3.3 21.8 21.8 0 0 0-17.25 21.46Zm290.92-1.5c-.22 32.63.15 65.28-.18 97.91-15.32-32.13-31.17-64-46.81-96-4.24-8.53-10.48-17.05-20-20-9.95-3.15-22-3-30.54 3.6-7.46 6-9.86 16.22-9.79 25.43q-.09 69.48 0 139c0 5.77 1.67 11.87 6 15.87 8.92 8.46 24.7 7.86 32.93-1.29 3.61-3.88 4.89-9.33 5-14.49.15-32.44-.21-64.89.18-97.32l47 96.4c4.5 8.92 10.87 18.37 21.15 21 8.85 2 18.91 2.08 26.92-2.74 8.59-5.4 12.06-16.08 11.95-25.79q.05-70.14 0-140.27c.24-6.13-2-12.54-6.81-16.55a24.1 24.1 0 0 0-28-1.37c-5.74 3.38-9.04 10.06-9 16.61Z" style="fill:#fff"/>
</svg>
